; generated by Slic3r Prusa Edition 1.41.3+linux64 on 2019-04-02 at 21:08:16

; 

; external perimeters extrusion width = 0.45mm
; perimeters extrusion width = 0.45mm
; infill extrusion width = 0.45mm
; solid infill extrusion width = 0.45mm
; top infill extrusion width = 0.40mm
; first layer extrusion width = 0.70mm

M107
M190 S60 ; set bed temperature and wait for it to be reached
M104 S210 ; set temperature
G28 ; home all axes
G1 Z5 F5000 ; lift nozzle
; Filament gcode
M109 S210 ; set temperature and wait for it to be reached
G21 ; set units to millimeters
G90 ; use absolute coordinates
M82 ; use absolute distances for extrusion
G92 E0
G1 Z0.350 F7800.000
G1 E-2.00000 F2400.00000
G92 E0
G1 X22.072 Y-8.904 F7800.000
G1 E2.00000 F2400.00000
G1 F1800
G1 X30.403 Y11.747 E4.02486
G1 X30.638 Y12.813 E4.12416
G1 X30.712 Y13.741 E4.20874
G1 X30.712 Y29.086 E5.60415
G1 X30.535 Y30.529 E5.73629
G1 X30.289 Y31.400 E5.81862
G1 X29.867 Y32.374 E5.91512
G1 X29.307 Y33.280 E6.01202
G1 X28.757 Y33.961 E6.09154
G1 X27.989 Y34.696 E6.18823
G1 X27.129 Y35.307 E6.28416
G1 X26.352 Y35.723 E6.36424
G1 X25.353 Y36.103 E6.46153
G1 X24.268 Y36.341 E6.56245
G1 X23.328 Y36.412 E6.64816
G1 X4.201 Y36.412 E8.38740
G1 X3.354 Y36.344 E8.46467
G1 X2.378 Y36.141 E8.55534
G1 X-22.594 Y28.527 E10.92920
G1 X-24.346 Y27.822 E11.10091
G1 X-25.063 Y27.427 E11.17536
G1 X-26.428 Y26.492 E11.32585
G1 X-28.061 Y24.889 E11.53389
G1 X-29.365 Y22.957 E11.74580
G1 X-30.248 Y20.824 E11.95578
G1 X-30.624 Y19.065 E12.11935
G1 X-30.711 Y18.083 E12.20900
G1 X-30.711 Y-25.536 E16.17522
G1 X-30.623 Y-26.468 E16.26037
G1 X-30.260 Y-28.184 E16.41987
G1 X-29.618 Y-29.832 E16.58067
G1 X-29.239 Y-30.579 E16.65680
G1 X-27.967 Y-32.397 E16.85855
G1 X-26.803 Y-33.571 E17.00889
G1 X-26.066 Y-34.158 E17.09460
G1 X-24.643 Y-35.073 E17.24837
G1 X-23.115 Y-35.739 E17.39995
G1 X-22.249 Y-36.024 E17.48285
G1 X-20.815 Y-36.315 E17.61591
G1 X-19.735 Y-36.412 E17.71456
G1 X3.718 Y-36.412 E19.84713
G1 X4.732 Y-36.330 E19.93960
G1 X6.490 Y-35.958 E20.10303
G1 X8.182 Y-35.296 E20.26818
G1 X9.000 Y-34.867 E20.35220
G1 X10.496 Y-33.838 E20.51734
G1 X11.756 Y-32.624 E20.67641
G1 X12.373 Y-31.887 E20.76381
G1 X13.329 Y-30.424 E20.92266
G1 X14.051 Y-28.787 E21.08542
G1 X22.050 Y-8.960 E23.02942
; PURGING FINISHED
G1 E21.02942 F2400.00000
G92 E0
G1 X2.276 Y-26.500 F7800.000
G1 E2.00000 F2400.00000
G1 F1800
G1 X2.817 Y-26.392 E2.05015
G1 X3.326 Y-26.181 E2.10029
G1 X3.785 Y-25.875 E2.15043
G1 X4.175 Y-25.485 E2.20061
G1 X4.481 Y-25.026 E2.25075
G1 X4.692 Y-24.517 E2.30089
G1 X4.800 Y-23.976 E2.35104
G1 X4.800 Y16.576 E6.03837
G1 X4.692 Y17.117 E6.08853
G1 X4.481 Y17.626 E6.13866
G1 X4.175 Y18.085 E6.18880
G1 X3.785 Y18.475 E6.23898
G1 X3.326 Y18.781 E6.28912
G1 X2.817 Y18.992 E6.33926
G1 X2.276 Y19.100 E6.38941
G1 X-18.276 Y19.100 E8.25815
G1 X-18.817 Y18.992 E8.30830
G1 X-19.326 Y18.781 E8.35844
G1 X-19.785 Y18.475 E8.40858
G1 X-20.175 Y18.085 E8.45876
G1 X-20.481 Y17.626 E8.50890
G1 X-20.692 Y17.117 E8.55904
G1 X-20.800 Y16.576 E8.60919
G1 X-20.800 Y-23.976 E12.29652
G1 X-20.692 Y-24.517 E12.34668
G1 X-20.481 Y-25.026 E12.39681
G1 X-20.175 Y-25.485 E12.44695
G1 X-19.785 Y-25.875 E12.49713
G1 X-19.326 Y-26.181 E12.54727
G1 X-18.817 Y-26.392 E12.59741
G1 X-18.276 Y-26.500 E12.64756
G1 X2.216 Y-26.500 E14.51084
G1 X2.214 Y-25.875 F7800.000
G1 F1800
G1 X2.634 Y-25.791 E14.54980
G1 X3.030 Y-25.627 E14.58875
G1 X3.386 Y-25.389 E14.62770
G1 X3.689 Y-25.086 E14.66667
G1 X3.927 Y-24.730 E14.70563
G1 X4.091 Y-24.334 E14.74458
G1 X4.175 Y-23.914 E14.78353
G1 X4.175 Y16.514 E18.45967
G1 X4.091 Y16.934 E18.49863
G1 X3.927 Y17.330 E18.53758
G1 X3.689 Y17.686 E18.57653
G1 X3.386 Y17.989 E18.61550
G1 X3.030 Y18.227 E18.65445
G1 X2.634 Y18.391 E18.69340
G1 X2.214 Y18.475 E18.73236
G1 X-18.214 Y18.475 E20.58991
G1 X-18.634 Y18.391 E20.62887
G1 X-19.030 Y18.227 E20.66782
G1 X-19.386 Y17.989 E20.70677
G1 X-19.689 Y17.686 E20.74574
G1 X-19.927 Y17.330 E20.78469
G1 X-20.091 Y16.934 E20.82364
G1 X-20.175 Y16.514 E20.86260
G1 X-20.175 Y-23.914 E24.53874
G1 X-20.091 Y-24.334 E24.57770
G1 X-19.927 Y-24.730 E24.61665
G1 X-19.689 Y-25.086 E24.65560
G1 X-19.386 Y-25.389 E24.69457
G1 X-19.030 Y-25.627 E24.73352
G1 X-18.634 Y-25.791 E24.77247
G1 X-18.214 Y-25.875 E24.81143
G1 X2.154 Y-25.875 E26.66352
G1 X2.153 Y-25.250 F7800.000
G1 F1800
G1 X2.452 Y-25.190 E26.69128
G1 X2.734 Y-25.074 E26.71904
G1 X2.988 Y-24.904 E26.74681
G1 X3.204 Y-24.688 E26.77457
G1 X3.374 Y-24.434 E26.80233
G1 X3.490 Y-24.152 E26.83010
G1 X3.550 Y-23.853 E26.85786
G1 X3.550 Y16.453 E30.52280
G1 X3.490 Y16.752 E30.55057
G1 X3.374 Y17.034 E30.57833
G1 X3.204 Y17.288 E30.60609
G1 X2.988 Y17.504 E30.63386
G1 X2.734 Y17.674 E30.66162
G1 X2.452 Y17.790 E30.68938
G1 X2.153 Y17.850 E30.71714
G1 X-18.153 Y17.850 E32.56350
G1 X-18.452 Y17.790 E32.59126
G1 X-18.734 Y17.674 E32.61902
G1 X-18.988 Y17.504 E32.64679
G1 X-19.204 Y17.288 E32.67455
G1 X-19.374 Y17.034 E32.70232
G1 X-19.490 Y16.752 E32.73008
G1 X-19.550 Y16.453 E32.75784
G1 X-19.550 Y-23.853 E36.42279
G1 X-19.490 Y-24.152 E36.45055
G1 X-19.374 Y-24.434 E36.47831
G1 X-19.204 Y-24.688 E36.50607
G1 X-18.988 Y-24.904 E36.53384
G1 X-18.734 Y-25.074 E36.56160
G1 X-18.452 Y-25.190 E36.58936
G1 X-18.153 Y-25.250 E36.61713
G1 X2.093 Y-25.250 E38.45803
G1 X2.338 Y-25.492 F7800.000
G1 E36.45803 F2400.00000
G92 E0
G1 X22.800 Y14.300 F7800.000
G1 E2.00000 F2400.00000
G1 F1800
G1 X22.800 Y16.300 E2.18190
G1 X9.144 Y16.300 E3.42365
G1 X8.642 Y16.400 E3.47022
G1 X8.169 Y16.596 E3.51678
G1 X7.743 Y16.880 E3.56334
G1 X7.380 Y17.243 E3.60994
G1 X7.096 Y17.669 E3.65650
G1 X6.900 Y18.142 E3.70307
G1 X6.800 Y18.644 E3.74964
G1 X6.800 Y24.156 E4.25083
G1 X6.900 Y24.658 E4.29740
G1 X7.096 Y25.132 E4.34398
G1 X7.381 Y25.557 E4.39054
G1 X7.743 Y25.919 E4.43708
G1 X8.168 Y26.204 E4.48365
G1 X8.642 Y26.400 E4.53024
G1 X9.144 Y26.500 E4.57681
G1 X22.800 Y26.500 E5.81856
G1 X22.800 Y28.500 E6.00046
G1 X4.800 Y28.500 E7.63724
G1 X4.800 Y23.624 E8.08061
G1 X4.692 Y23.083 E8.13076
G1 X4.481 Y22.574 E8.18090
G1 X4.175 Y22.115 E8.23104
G1 X3.785 Y21.725 E8.28121
G1 X3.326 Y21.419 E8.33136
G1 X2.817 Y21.208 E8.38149
G1 X2.276 Y21.100 E8.43165
G1 X-19.555 Y21.100 E10.41667
G1 X-20.250 Y20.962 E10.48116
G1 X-20.905 Y20.691 E10.54564
G1 X-21.495 Y20.296 E10.61013
G1 X-21.996 Y19.795 E10.67461
G1 X-22.391 Y19.205 E10.73910
G1 X-22.662 Y18.550 E10.80358
G1 X-22.800 Y17.855 E10.86807
G1 X-22.800 Y-25.255 E14.78797
G1 X-22.662 Y-25.950 E14.85246
G1 X-22.391 Y-26.605 E14.91694
G1 X-21.996 Y-27.195 E14.98143
G1 X-21.495 Y-27.696 E15.04591
G1 X-20.905 Y-28.091 E15.11040
G1 X-20.250 Y-28.362 E15.17488
G1 X-19.555 Y-28.500 E15.23937
G1 X3.559 Y-28.499 E17.34107
G1 X4.250 Y-28.362 E17.40516
G1 X4.905 Y-28.091 E17.46964
G1 X5.495 Y-27.696 E17.53413
G1 X5.996 Y-27.195 E17.59862
G1 X6.391 Y-26.605 E17.66311
G1 X6.660 Y-25.954 E17.72724
G1 X6.800 Y-25.254 E17.79213
G1 X6.800 Y12.486 E21.22384
G1 X6.995 Y13.128 E21.28481
G1 X7.313 Y13.605 E21.33690
G1 X7.894 Y14.082 E21.40526
G1 X8.613 Y14.300 E21.47362
G1 X22.740 Y14.300 E22.75816
G1 X23.307 Y13.701 F7800.000
G1 F1800
G1 X23.375 Y13.757 E22.76620
G1 X23.425 Y13.878 E22.77813
G1 X23.425 Y16.722 E23.03677
G1 X23.375 Y16.843 E23.04871
G1 X23.266 Y16.916 E23.06066
G1 X9.206 Y16.925 E24.33913
G1 X8.824 Y17.001 E24.37451
G1 X8.465 Y17.150 E24.40988
G1 X8.141 Y17.366 E24.44525
G1 X7.866 Y17.641 E24.48064
G1 X7.650 Y17.965 E24.51601
G1 X7.501 Y18.324 E24.55138
G1 X7.425 Y18.706 E24.58676
G1 X7.425 Y24.094 E25.07677
G1 X7.501 Y24.476 E25.11214
G1 X7.650 Y24.836 E25.14753
G1 X7.866 Y25.159 E25.18289
G1 X8.141 Y25.434 E25.21825
G1 X8.464 Y25.650 E25.25363
G1 X8.824 Y25.799 E25.28902
G1 X9.206 Y25.875 E25.32439
G1 X23.265 Y25.883 E26.60283
G1 X23.375 Y25.957 E26.61482
G1 X23.425 Y26.078 E26.62675
G1 X23.425 Y28.922 E26.88539
G1 X23.400 Y29.007 E26.89341
G1 X23.344 Y29.074 E26.90139
G1 X23.222 Y29.125 E26.91338
G1 X4.334 Y29.116 E28.63083
G1 X4.225 Y29.043 E28.64278
G1 X4.175 Y28.922 E28.65475
G1 X4.175 Y23.686 E29.13086
G1 X4.091 Y23.266 E29.16982
G1 X3.927 Y22.870 E29.20877
G1 X3.689 Y22.514 E29.24772
G1 X3.386 Y22.211 E29.28669
G1 X3.030 Y21.973 E29.32564
G1 X2.634 Y21.809 E29.36459
G1 X2.214 Y21.725 E29.40355
G1 X-19.616 Y21.725 E31.38857
G1 X-20.432 Y21.563 E31.46425
G1 X-21.201 Y21.244 E31.53993
G1 X-21.893 Y20.782 E31.61561
G1 X-22.482 Y20.193 E31.69129
G1 X-22.944 Y19.501 E31.76697
G1 X-23.263 Y18.732 E31.84264
G1 X-23.425 Y17.916 E31.91833
G1 X-23.425 Y-25.316 E35.84941
G1 X-23.263 Y-26.132 E35.92510
G1 X-22.944 Y-26.901 E36.00077
G1 X-22.482 Y-27.593 E36.07645
G1 X-21.893 Y-28.182 E36.15213
G1 X-21.201 Y-28.644 E36.22781
G1 X-20.432 Y-28.963 E36.30349
G1 X-19.616 Y-29.125 E36.37917
G1 X3.620 Y-29.124 E38.49206
G1 X4.432 Y-28.963 E38.56734
G1 X5.201 Y-28.644 E38.64301
G1 X5.893 Y-28.182 E38.71869
G1 X6.482 Y-27.593 E38.79437
G1 X6.944 Y-26.901 E38.87006
G1 X7.261 Y-26.136 E38.94536
G1 X7.425 Y-25.316 E39.02144
G1 X7.425 Y12.394 E42.45035
G1 X7.566 Y12.858 E42.49446
G1 X7.781 Y13.180 E42.52971
G1 X8.194 Y13.520 E42.57833
G1 X8.706 Y13.675 E42.62695
G1 X23.250 Y13.680 E43.94944
G1 X24.017 Y13.652 F7800.000
G1 F1800
G1 X24.050 Y13.816 E43.96466
G1 X24.050 Y16.784 E44.23449
G1 X24.017 Y16.948 E44.24971
G1 X23.953 Y17.103 E44.26493
G1 X23.860 Y17.242 E44.28016
G1 X23.742 Y17.360 E44.29539
G1 X23.603 Y17.453 E44.31061
G1 X23.448 Y17.517 E44.32584
G1 X23.284 Y17.550 E44.34106
G1 X9.267 Y17.550 E45.61559
G1 X9.006 Y17.602 E45.63977
G1 X8.761 Y17.704 E45.66395
G1 X8.539 Y17.851 E45.68813
G1 X8.351 Y18.039 E45.71232
G1 X8.204 Y18.261 E45.73650
G1 X8.102 Y18.506 E45.76068
G1 X8.050 Y18.767 E45.78486
G1 X8.050 Y24.033 E46.26368
G1 X8.102 Y24.294 E46.28787
G1 X8.204 Y24.540 E46.31205
G1 X8.351 Y24.761 E46.33622
G1 X8.539 Y24.949 E46.36040
G1 X8.760 Y25.096 E46.38458
G1 X9.006 Y25.198 E46.40877
G1 X9.267 Y25.250 E46.43295
G1 X23.284 Y25.250 E47.70748
G1 X23.448 Y25.283 E47.72269
G1 X23.603 Y25.347 E47.73801
G1 X23.742 Y25.440 E47.75316
G1 X23.860 Y25.558 E47.76838
G1 X23.953 Y25.697 E47.78360
G1 X24.017 Y25.852 E47.79883
G1 X24.050 Y26.016 E47.81405
G1 X24.050 Y28.984 E48.08388
G1 X24.017 Y29.148 E48.09910
G1 X23.953 Y29.303 E48.11433
G1 X23.860 Y29.442 E48.12955
G1 X23.742 Y29.560 E48.14470
G1 X23.602 Y29.653 E48.16002
G1 X23.448 Y29.717 E48.17523
G1 X23.284 Y29.750 E48.19045
G1 X4.316 Y29.750 E49.91515
G1 X4.152 Y29.717 E49.93037
G1 X3.997 Y29.653 E49.94560
G1 X3.858 Y29.560 E49.96082
G1 X3.740 Y29.442 E49.97605
G1 X3.647 Y29.303 E49.99128
G1 X3.583 Y29.149 E50.00642
G1 X3.550 Y28.984 E50.02174
G1 X3.550 Y23.747 E50.49787
G1 X3.490 Y23.448 E50.52563
G1 X3.374 Y23.166 E50.55339
G1 X3.204 Y22.912 E50.58115
G1 X2.988 Y22.696 E50.60892
G1 X2.734 Y22.526 E50.63668
G1 X2.452 Y22.410 E50.66444
G1 X2.153 Y22.350 E50.69220
G1 X-19.678 Y22.350 E52.67722
G1 X-20.615 Y22.164 E52.76410
G1 X-21.497 Y21.798 E52.85097
G1 X-22.292 Y21.267 E52.93784
G1 X-22.967 Y20.592 E53.02471
G1 X-23.498 Y19.797 E53.11159
G1 X-23.864 Y18.915 E53.19846
G1 X-24.050 Y17.978 E53.28533
G1 X-24.050 Y-25.378 E57.22761
G1 X-23.864 Y-26.315 E57.31449
G1 X-23.498 Y-27.197 E57.40135
G1 X-22.967 Y-27.992 E57.48823
G1 X-22.292 Y-28.667 E57.57510
G1 X-21.497 Y-29.198 E57.66197
G1 X-20.615 Y-29.564 E57.74884
G1 X-19.678 Y-29.750 E57.83572
G1 X3.682 Y-29.749 E59.95980
G1 X4.615 Y-29.564 E60.04627
G1 X5.497 Y-29.198 E60.13314
G1 X6.292 Y-28.667 E60.22001
G1 X6.967 Y-27.992 E60.30688
G1 X7.498 Y-27.197 E60.39376
G1 X7.862 Y-26.319 E60.48023
G1 X8.050 Y-25.377 E60.56751
G1 X8.050 Y12.301 E63.99361
G1 X8.137 Y12.588 E64.02087
G1 X8.249 Y12.756 E64.03926
G1 X8.495 Y12.958 E64.06814
G1 X8.799 Y13.050 E64.09703
G1 X23.284 Y13.050 E65.41413
G1 X23.448 Y13.083 E65.42935
G1 X23.603 Y13.147 E65.44458
G1 X23.742 Y13.240 E65.45980
G1 X23.860 Y13.358 E65.47504
G1 X23.953 Y13.497 E65.49026
G1 X23.994 Y13.597 E65.50003
G1 X23.903 Y13.774 F7800.000
G1 E63.50003 F2400.00000
G92 E0
G1 X22.613 Y15.820 F7800.000
G1 E2.00000 F2400.00000
G1 F1800
G1 X21.561 Y14.768 E2.13584
G1 X20.673 Y14.768 E2.21686
G1 X21.737 Y15.832 E2.35414
G1 X20.849 Y15.832 E2.43517
G1 X19.786 Y14.768 E2.57245
G1 X18.899 Y14.768 E2.65348
G1 X19.962 Y15.832 E2.79076
G1 X19.074 Y15.832 E2.87178
G1 X18.011 Y14.768 E3.00907
G1 X17.124 Y14.768 E3.09009
G1 X18.187 Y15.832 E3.22737
G1 X17.300 Y15.832 E3.30840
G1 X16.236 Y14.768 E3.44568
G1 X15.349 Y14.768 E3.52671
G1 X16.412 Y15.832 E3.66399
G1 X15.525 Y15.832 E3.74501
G1 X14.462 Y14.768 E3.88230
G1 X13.574 Y14.768 E3.96332
G1 X14.637 Y15.832 E4.10060
G1 X13.750 Y15.832 E4.18163
G1 X12.687 Y14.768 E4.31891
G1 X11.799 Y14.768 E4.39994
G1 X12.863 Y15.832 E4.53722
G1 X11.975 Y15.832 E4.61824
G1 X10.912 Y14.768 E4.75553
G1 X10.025 Y14.768 E4.83655
G1 X11.088 Y15.832 E4.97383
G1 X10.200 Y15.832 E5.05486
G1 X9.137 Y14.768 E5.19214
G1 X8.544 Y14.768 E5.24632
G1 X8.122 Y14.640 E5.28659
G1 X9.313 Y15.832 E5.44040
G1 X9.098 Y15.832 E5.46004
G1 X8.537 Y15.943 E5.51225
G1 X5.268 Y12.674 E5.93433
G1 X5.268 Y13.562 E6.01535
G1 X7.911 Y16.204 E6.35660
G1 X7.444 Y16.516 E6.40788
G1 X7.390 Y16.571 E6.41488
G1 X5.268 Y14.449 E6.68882
G1 X5.268 Y15.337 E6.76985
G1 X6.960 Y17.028 E6.98830
G1 X6.681 Y17.447 E7.03424
G1 X6.625 Y17.581 E7.04749
G1 X5.268 Y16.224 E7.22269
G1 X5.268 Y16.622 E7.25903
G1 X5.187 Y17.030 E7.29703
G1 X6.402 Y18.245 E7.45386
G1 X6.332 Y18.598 E7.48675
G1 X6.332 Y19.062 E7.52911
G1 X4.961 Y17.692 E7.70605
G1 X4.896 Y17.848 E7.72152
G1 X4.630 Y18.247 E7.76537
G1 X6.332 Y19.949 E7.98512
G1 X6.332 Y20.837 E8.06615
G1 X4.209 Y18.714 E8.34028
G1 X4.083 Y18.839 E8.35645
G1 X3.702 Y19.094 E8.39838
G1 X6.332 Y21.724 E8.73799
G1 X6.332 Y22.611 E8.81902
G1 X3.102 Y19.381 E9.23610
G1 X2.953 Y19.443 E9.25074
G1 X2.388 Y19.555 E9.30338
G1 X6.332 Y23.499 E9.81260
G1 X6.332 Y24.202 E9.87681
G1 X6.377 Y24.432 E9.89820
G1 X5.205 Y23.260 E10.04956
G1 E8.04956 F2400.00000
G92 E0
G1 X2.640 Y20.695 F7800.000
G1 E2.00000 F2400.00000
G1 F1800
G1 X1.514 Y19.568 E2.14546
G1 X0.626 Y19.568 E2.22648
G1 X1.690 Y20.632 E2.36377
G1 X0.802 Y20.632 E2.44479
G1 X-0.261 Y19.568 E2.58207
G1 X-1.148 Y19.568 E2.66310
G1 X-0.085 Y20.632 E2.80038
G1 X-0.973 Y20.632 E2.88141
G1 X-2.036 Y19.568 E3.01869
G1 X-2.923 Y19.568 E3.09971
G1 X-1.860 Y20.632 E3.23700
G1 X-2.747 Y20.632 E3.31802
G1 X-3.811 Y19.568 E3.45530
G1 X-4.698 Y19.568 E3.53633
G1 X-3.635 Y20.632 E3.67361
G1 X-4.522 Y20.632 E3.75464
G1 X-5.585 Y19.568 E3.89192
G1 X-6.473 Y19.568 E3.97294
G1 X-5.410 Y20.632 E4.11023
G1 X-6.297 Y20.632 E4.19125
G1 X-7.360 Y19.568 E4.32853
G1 X-8.248 Y19.568 E4.40956
G1 X-7.184 Y20.632 E4.54684
G1 X-8.072 Y20.632 E4.62787
G1 X-9.135 Y19.568 E4.76515
G1 X-10.022 Y19.568 E4.84617
G1 X-8.959 Y20.632 E4.98346
G1 X-9.847 Y20.632 E5.06448
G1 X-10.910 Y19.568 E5.20176
G1 X-11.797 Y19.568 E5.28279
G1 X-10.734 Y20.632 E5.42007
G1 X-11.621 Y20.632 E5.50110
G1 X-12.685 Y19.568 E5.63838
G1 X-13.572 Y19.568 E5.71940
G1 X-12.509 Y20.632 E5.85669
G1 X-13.396 Y20.632 E5.93771
G1 X-14.459 Y19.568 E6.07499
G1 X-15.347 Y19.568 E6.15602
G1 X-14.284 Y20.632 E6.29330
G1 X-15.171 Y20.632 E6.37433
G1 X-16.234 Y19.568 E6.51161
G1 X-17.121 Y19.568 E6.59263
G1 X-16.058 Y20.632 E6.72992
G1 X-16.946 Y20.632 E6.81094
G1 X-18.009 Y19.568 E6.94822
G1 X-18.322 Y19.568 E6.97681
G1 X-18.953 Y19.443 E7.03560
G1 X-19.070 Y19.394 E7.04715
G1 X-17.833 Y20.632 E7.20690
G1 X-18.720 Y20.632 E7.28792
G1 X-22.332 Y17.020 E7.75421
G1 X-22.332 Y16.133 E7.83524
G1 X-21.094 Y17.370 E7.99499
G1 X-21.143 Y17.253 E8.00654
G1 X-21.268 Y16.622 E8.06533
G1 X-21.268 Y16.309 E8.09391
G1 X-22.332 Y15.246 E8.23120
G1 X-22.332 Y14.358 E8.31222
G1 X-21.268 Y15.421 E8.44950
G1 X-21.268 Y14.534 E8.53053
G1 X-22.332 Y13.471 E8.66781
G1 X-22.332 Y12.584 E8.74884
G1 X-21.268 Y13.647 E8.88612
G1 X-21.268 Y12.759 E8.96714
G1 X-22.332 Y11.696 E9.10443
G1 X-22.332 Y10.809 E9.18545
G1 X-21.268 Y11.872 E9.32273
G1 X-21.268 Y10.985 E9.40376
G1 X-22.332 Y9.921 E9.54104
G1 X-22.332 Y9.034 E9.62207
G1 X-21.268 Y10.097 E9.75935
G1 X-21.268 Y9.210 E9.84037
G1 X-22.332 Y8.147 E9.97766
G1 X-22.332 Y7.259 E10.05868
G1 X-21.268 Y8.322 E10.19596
